X: 553
U:~=!turn!
M:C
L:1/8
K:D
dcdf {/f}e2 ef | A2 F>A B<de>B | c<eA>c d2 d || g | f<dd>a f<da>d | f<dd>f {/f}e2 eg |
f<dd>a f<da>A | B<dc>e d2 dg | f<dd>a f<da>f | (3gag (3fgf {/f}e2 ef/g/ | a>fg>e f<ae>f | (d/c/B/A/) dF D2 D |]


